X:1
T:Midst of Night
F:http://www.folkinfo.org/songs
B:A Dorset Book of Folk Songs, EFDSS, 1958
S:Joseph Elliott, Todber
Z:H.E.D. Hammond
M:4/4     %Meter
L:1/8     %
K:D
F2 |G2 G2 A2 B2 |A6 G2 |F F D D EF A2-|A2 z2 z2 
w:'Twas in the midst of night when dark-ness was all ov-*er* 
F2 |G2 A2 B2 B2 |A6 E G |F2 ED B,=C D2-|D2 |]
w:The moon did give no light no nor could dis-*cov-*er* 